X: 1428
T: The Harvest Field
M:C|
L:1/8
B:O'Neill's 1428
Z:"Transcribed by Bob Safranek, rjs@gsp.org"
K:G
(BA)| GFGA (Bd ((3{e}dcd) | e)fge dB ((3{c}BAB)| efge    dBGA| BAAG AcBA |
      GFGA (Bd ((3{e}dcd))| efge  (dB) TB2     | {a}gfge dBge| dBAB G2   ||
(Bc)| dbag efge           | dBgB  (TBA) A2     | dbag    efge| dg ((3fga) g2 ga|
  ((3bag) af ((3agf) fd|((3efg) dc (TBA) A2|{A}GFGA (Bd) d2|((3efg) ((3fga) g2|]


